X:1
T:Guy Reed
M:4/4
L:1/8
K:G
 d2 G2G-BB-d| dd d3 ed c2| AA A3| D D2F-A A B2| c c3| c2 de e2 d2|\
 A B3| G2 G2 G B2 d| d d3 fg e2| c2 d e3 e2| e d2 cB d3| G2 A2 B2 G2|\
 G G3||
